resources/haticons/SVG/control_camera.svg

<!-- Generated by IcoMoon.io -->
<svg version="1.1" xmlns="http://www.w3.org/2000/svg" width="24" height="24" viewBox="0 0 24 24">
<title>control_camera</title>
<path d="M9 12q0-1.219 0.891-2.109t2.109-0.891 2.109 0.891 0.891 2.109-0.891 2.109-2.109 0.891-2.109-0.891-0.891-2.109zM5.531 8.438l1.781 1.781-1.781 1.781 1.781 1.781-1.781 1.781-3.516-3.563zM8.438 18.469l1.781-1.781 1.781 1.781 1.781-1.781 1.781 1.781-3.563 3.516zM18.469 15.563l-1.781-1.781 1.781-1.781-1.781-1.781 1.781-1.781 3.516 3.563zM15.563 5.531l-1.781 1.781-1.781-1.781-1.781 1.781-1.781-1.781 3.563-3.516z"></path>
</svg>

<svg xmlns="http://www.w3.org/2000/svg" width="24" height="24"><path d="M9 12q0-1.219.891-2.109T12 9t2.109.891T15 12t-.891 2.109T12 15t-2.109-.891T9 12zM5.531 8.438l1.781 1.781L5.531 12l1.781 1.781-1.781 1.781-3.516-3.563zm2.907 10.031l1.781-1.781L12 18.469l1.781-1.781 1.781 1.781-3.563 3.516zm10.031-2.906l-1.781-1.781 1.781-1.781-1.781-1.781 1.781-1.781 3.516 3.563zM15.563 5.531l-1.781 1.781-1.781-1.781-1.781 1.781-1.781-1.781 3.563-3.516z"/></svg>
